X:3
T: Graf und Nonne (Die Nonne)
N: Q0155B
O: Mitteleuropa, Deutschland
N: Anhaengsel an der dritten Zeile.
R: Ballade, Standesunterschied, vergebliche Werbung, Liebe, Klage
M: 2/4
L: 1/8
K: G
G | BGdB | B2A
G | BGdB | A2z
G | dddd | dBG2 | c2e2 | dBG
d | dcAF | G2z

@@@ Tune index: 1713
